X:1
T:Title
%%score ( 1 2 ) { 3 | 4 }
L:1/8
Q:1/4=100
M:4/4
K:G
V:1 treble nm="Grand Piano, Piano"
V:2 treble 
V:3 bass nm="Grand Piano, Piano"
V:4 bass 
V:1
 [GB]4 [FA]4 | [EG]4 [DF]4 | [CE]2 [EA]2 G2 F2 | [DG]8 |] %4
w: A men,~|a men,~|a * * *|men.~|
V:2
 x8 | x8 | z4 D4 | x8 |] %4
V:3
 D4 D4 | B,4 B,4 | G,2 C2 B,2 A,2 | B,8 |] %4
V:4
 G,4 D,4 | E,4 B,,4 | C,2 A,,2 D,4 | [G,,G,]8 |] %4

